X:1
T:De Scherrer. FBb
T:Naturjodel rund um den Saentis (www.roothuus-gonten.ch)
%%partsbox
%P:
Q:1/8=70
R:Naturjodel
M:3/4
L:1/8
K:F  %  (%%MIDI gchordo) 
[P:A] FD EC DE | "F"F>A DC F/G/F | "C7"E>B DC E/D/C | "F"F>A DC !fermata!F2 | 
FD EC DE | "F"F>A DC F/d/c/F/ | "C7"E>B DC EC | "F"F6 |]  
Q:1/8=106
[P:B] C>C D>C E>C | "F"F(3c/=B/c/ d>c (5A/F/d/c/F/ | [M:4/4] "C7"E(3c/=B/c/ e>dc2 d/c/_B/E/ | [M:3/4] "F" "rit."F!fermata!f ed !fermata!.c2 | 
"_a tempo""C"C>C "C/Bb"D>C "C7/G"E>C | "F"F(3c/=B/c/ d>c (5A/F/d/c/F/ | [M:4/4] "C7"E(3c/=B/c/ e>dc2 d/c/_B/E/ | "F"F6 |]
Q:3/4=56
[K:Bb] 
M:3/4
[P:C] "_Walzer" FF | ("Bb"F2.d2).B2 | (D2.G2).F2 | ("F7"A,2.G2).F2 | E4FF | "_simile""F7"(F2e2)A2 | (E2G2)F2 | 
("Bb"B,2G2)F2 | D4FF | ("Bb"F2d2)B2 | (D2G2)F2 | ("F7"A,2.G2)F2 | E4FF | 
("F7"F2e2)A2 | (E2G2)F2 "rit." | "Bb"B,3B,B,2 | B,4 "a tempo"FF || 
[P:D]
"F7"F2EE EE | c4FF | "Bb"F2DD DD | B4cB | "F7"AF FF FF | cF FF FF | 
"Bb"BF FF FF | d4FF | "F7"F2EE EE | c4FF | "Bb"F2DD DD | B4cB | 
"F7"AF FF FF | "rit."c2F2A2 | "Bb"B2"F7"d2c2 | "Bb"B6 |] 
W:
%W:Parts: ABCD
W:trad./Toggenburg
W:Gesungen von Georg Kuratli und JK Männertreu, Nesslau
W:Schellackplatte Ultraphon A 25036
W: 
W:https://www.roothuus-gonten.ch/mediendateien/jodel/pdf/De Scherrer.pdf
W: *AUDIO*:  www.roothuus-gonten.ch/cms/index.php/de/naturjodel-rund-um-den-saentis
% © 2017 ROOTHUUS GONTEN. #1253.50
% Feb. 4, 2019

